X: 16
T: No_24_Winter_Dance_Song_(b).krn
N: Derived from No_24_Winter_Dance_Song_(b).krn
%%abc-version 2.0
%%abcx-abcm2ps-target-version 5.9.1 (29 Sep 2008)
%%abc-creator hum2abc beta
%%abcx-conversion-date 2019/03/15 08:25:35
%%humdrum-veritas 3440333006
%%humdrum-veritas-data 3564854084
%%linebreak <none>
%%barnumbers 0
L: 1/8
M: 3/4
K: Db clef=bass
[K:clef=bass][M:3/4]A,A,A,2A,2 | 
DB, B,3/E/ E3/D/ | 
[M:2/4]E2E2 | 
[M:3/4]DB, B,3/E/ E3/D/ | 
[M:2/4]E2E2 | 
E2DB, | 
D2D2 | 
[M:3/4]EB, DB, B,B,/F,/ | 
[M:2/4]B,2B, z | 
[M:3/4]DB, B,F, F,F,/D,/ | 
[M:2/4]F,2F,F, | 
[M:3/4]D,2z4 ]|:  
DB, B,3/E/ E3/D/ | 
[M:2/4]E2E2 | 
[M:3/4]DB, B,3/E/ E3/D/ | 
E2E2E z | 
[M:2/4]F2(3=GFE | 
F2(3=GFE | 
F7/E/ | 
F4 | 
F=G F=D | 
E2E3/=D/ | 
E2E3/=D/ | 
E2E2 | 
EF ED | 
E2(3EDB, | 
B,2B, z | 
DB, F,F, | 
B,2B,2 | 
B,2z2 :|]  
B, z z3/ B,/ [I:setbarnb 32]| 
G2(3FEE | 
E2E2 | 
F2(3EB,B, | 
[M:3/4]B,2B,2B,2 | 
[M:2/4]E2E3/=D/ | 
E2E3/=D/ | 
E2E z | 
=G2(3FEE | 
E2E2 | 
F2(3EB,B, | 
B,2B,2 | 
E2(3EDD | 
E2E3/=D/ | 
E2E z | 
[M:3/4]EE EE F/E/E | 
[M:7/8]F/E/DDB,B,B, z | 
[M:2/4]E2E2 | 
(3FEDD2 | 
B,2F,2 | 
(3B,F,E, E,E, | 
E,2E,2 | 
[M:3/4](3F,E,E,E,2E,2 | 
E,2E, zz2 |]  



